packages/match-logos/mono/svg/drivenow.svg

<svg fill="none" height="24" viewBox="0 0 156 24" width="156" xmlns="http://www.w3.org/2000/svg"><path d="m61.8042 6.6156h4.728v17.0322h-4.728zm0-1.8852h4.728v-4.7304h-4.728zm-6.9978 3.1896v-1.3044h-4.7304v17.0322h4.731v-11.1858c.7992-1.0212 2.1732-1.62 4.026-1.62.192 0 .864.0636.9912.096l-.0024-4.3224c-3.462 0-5.016 1.3038-5.016 1.3038zm21.1176 10.2648-2.8728-11.5692h-4.7604l4.953 17.0322h5.3604l4.953-17.0322h-4.7604zm21.96-2.7498v1.374h-10.1418c0 2.4582 1.6884 3.6744 3.396 3.6744 1.629 0 2.9718-1.086 3.6732-2.208l2.748 2.2056c-1.47 2.142-3.516 3.5172-6.648 3.5172-4.092 0-7.356-2.3562-7.356-8.8536 0-6.486 3.822-8.883 7.3056-8.883 3.8352 0 7.02 2.6202 7.02 9.1704zm-4.212-1.9542c-.162-2.5572-1.3542-3.606-2.8062-3.606-1.242 0-2.8356.888-3.0912 3.606h5.898zm-45.8928-1.7208c0 9.204-4.5696 11.8872-10.8336 11.8872h-6.198v-23.646h6.198c6.36-.0012 10.8348 2.619 10.8348 11.7588zm-4.758 0c0-5.5278-1.5372-7.6704-5.6592-7.6704h-1.8858v15.4992h1.9176c4.0902 0 5.628-2.109 5.628-7.8288zm69.4608 2.316c-.606-1.3878-.984-2.142-1.661-3.4662l-5.431-10.6098h-5.018v23.6478h4.73v-14.424c.543 1.185.886 1.8384 1.47 2.952l6.136 11.472h4.506v-23.6478h-4.731v14.076zm39.37-7.4604-2.324 11.5692-2.021-11.5692h-4.416l-2.021 11.5692-2.324-11.5692h-4.027l3.964 17.0322h4.73l1.884-10.0878.004-.0102.004.0096 1.885 10.086h4.728l3.964-17.0322h-4.027zm-17.544 8.532c0 6.3276-3.643 8.8524-7.509 8.8524-3.864 0-7.508-2.5248-7.508-8.8524 0-6.3918 3.612-8.8842 7.51-8.8842 3.867 0 7.511 2.49 7.511 8.8818zm-4.22 0c0-3.1962-1.244-5.274-3.289-5.274-1.946 0-3.288 1.824-3.288 5.274 0 3.228 1.144 5.328 3.222 5.328 1.95 0 3.358-1.812 3.358-5.328zm-116.9432-15.144h-10.1184c-1.6644 0-3.0264 1.362-3.0264 3.0264v1.773l8.31 2.5788 4.8342-7.3782zm-6.2508 14.5944 8.418-3.474-6.27-1.95-2.148 5.4258zm.7368-5.874-7.6308-2.364v11.0856l4.9788-2.0592 2.6502-6.6618zm9.438 1.38 4.0092-10.065c-.1481-.0232507-.2977-.03528493-.4476-.036h-5.712l-5.1222 7.8438 7.2702 2.2572zm6.5898 2.0592v-2.883l-3.9762 1.6476 3.9756 1.236zm-23.6586 6.876v1.5768c0 1.2258.7542 2.283 1.809 2.7576l2.418-6.0708-4.227 1.737zm22.44-18.426-3.6 9.0432 4.818-1.9878v-4.6386c-.0012-.984-.486-1.8642-1.218-2.418zm-16.3158 15.9012-2.8302 7.128h8.4l4.4772-11.2824-10.0464 4.155zm7.164 7.128h7.3416c1.6644 0 3.0264-1.3632 3.0264-3.027v-6.9114l-5.712-1.7736z" fill="#1f304c"/></svg>

<svg width="156" height="24" viewBox="0 0 156 24" fill="none" xmlns="http://www.w3.org/2000/svg">
<path d="M61.8042 6.6156H66.5322V23.6478H61.8042V6.6156ZM61.8042 4.7304H66.5322V0H61.8042V4.7304ZM54.8064 7.92V6.6156H50.076V23.6478H54.807V12.462C55.6062 11.4408 56.9802 10.842 58.833 10.842C59.025 10.842 59.697 10.9056 59.8242 10.938L59.8218 6.6156C56.3598 6.6156 54.8058 7.9194 54.8058 7.9194L54.8064 7.92ZM75.924 18.1848L73.0512 6.6156H68.2908L73.2438 23.6478H78.6042L83.5572 6.6156H78.7968L75.924 18.1848ZM97.884 15.435V16.809H87.7422C87.7422 19.2672 89.4306 20.4834 91.1382 20.4834C92.7672 20.4834 94.11 19.3974 94.8114 18.2754L97.5594 20.481C96.0894 22.623 94.0434 23.9982 90.9114 23.9982C86.8194 23.9982 83.5554 21.642 83.5554 15.1446C83.5554 8.6586 87.3774 6.2616 90.861 6.2616C94.6962 6.2616 97.881 8.8818 97.881 15.432L97.884 15.435ZM93.672 13.4808C93.51 10.9236 92.3178 9.8748 90.8658 9.8748C89.6238 9.8748 88.0302 10.7628 87.7746 13.4808H93.6726H93.672ZM47.7792 11.76C47.7792 20.964 43.2096 23.6472 36.9456 23.6472H30.7476V0.0012H36.9456C43.3056 0 47.7804 2.6202 47.7804 11.76H47.7792ZM43.0212 11.76C43.0212 6.2322 41.484 4.0896 37.362 4.0896H35.4762V19.5888H37.3938C41.484 19.5888 43.0218 17.4798 43.0218 11.76H43.0212ZM112.482 14.076C111.876 12.6882 111.498 11.934 110.821 10.6098L105.39 0H100.372V23.6478H105.102V9.2238C105.645 10.4088 105.988 11.0622 106.572 12.1758L112.708 23.6478H117.214V0H112.483V14.076H112.482ZM151.852 6.6156L149.528 18.1848L147.507 6.6156H143.091L141.07 18.1848L138.746 6.6156H134.719L138.683 23.6478H143.413L145.297 13.56L145.301 13.5498L145.305 13.5594L147.19 23.6454H151.918L155.882 6.6132H151.855L151.852 6.6156ZM134.308 15.1476C134.308 21.4752 130.665 24 126.799 24C122.935 24 119.291 21.4752 119.291 15.1476C119.291 8.7558 122.903 6.2634 126.801 6.2634C130.668 6.2634 134.312 8.7534 134.312 15.1452L134.308 15.1476ZM130.088 15.1476C130.088 11.9514 128.844 9.8736 126.799 9.8736C124.853 9.8736 123.511 11.6976 123.511 15.1476C123.511 18.3756 124.655 20.4756 126.733 20.4756C128.683 20.4756 130.091 18.6636 130.091 15.1476H130.088ZM13.1448 0.0036H3.0264C1.362 0.0036 0 1.3656 0 3.03V4.803L8.31 7.3818L13.1442 0.0036H13.1448ZM6.894 14.598L15.312 11.124L9.042 9.174L6.894 14.5998V14.598ZM7.6308 8.724L0 6.36V17.4456L4.9788 15.3864L7.629 8.7246L7.6308 8.724ZM17.0688 10.104L21.078 0.039C20.9299 0.0157493 20.7803 0.00371507 20.6304 0.003H14.9184L9.7962 7.8468L17.0664 10.104H17.0688ZM23.6586 12.1632V9.2802L19.6824 10.9278L23.658 12.1638L23.6586 12.1632ZM0 19.0392V20.616C0 21.8418 0.7542 22.899 1.809 23.3736L4.227 17.3028L0 19.0398V19.0392ZM22.44 0.6132L18.84 9.6564L23.658 7.6686V3.03C23.6568 2.046 23.172 1.1658 22.44 0.612V0.6132ZM6.1242 16.5144L3.294 23.6424H11.694L16.1712 12.36L6.1248 16.515L6.1242 16.5144ZM13.2882 23.6424H20.6298C22.2942 23.6424 23.6562 22.2792 23.6562 20.6154V13.704L17.9442 11.9304L13.2882 23.6424Z" fill="#1F304C"/>
</svg>
